svg/u264c.svg

<svg viewBox="0 0 128 128" xmlns="http://www.w3.org/2000/svg">
  <circle cx="64" cy="64" r="60" fill="#FBC02D"/>
  <circle cx="60.1" cy="63.1" r="56.1" fill="#FCE438"/>
  <path d="M24,29.7c4.5-7.1,14.1-13,24.1-14.8c2.5-0.4,5-0.6,7.1,0.2 c1.6,0.6,2.9,2.1,2,3.8c-0.7,1.4-2.6,2-4.1,2.5c-9.3,3-17.9,6.4-23.1,14.3c-2,3-4.9,14.4-8.6,12.3C17.5,45.7,18.3,38.5,24,29.7z" opacity="0.6" fill="#FFFFFF" enable-background="new "/>
  <path d="M92.6,93.1c-0.7-0.3-1.4-0.5-2.2-0.5c-0.7,0-1.5,0.2-2.1,0.4c-0.7,0.3-2.6,1-4.9,1 c-0.8,0-1.5-0.1-2.2-0.2c-2.4-0.5-3.8-1.8-4.4-4.3c-1.9-7.4,2-12,7.9-18.9c0.6-0.7,1.2-1.5,1.9-2.2c0.4-0.5,0.9-1,1.3-1.5 c5.4-6.4,8.2-9.7,8.2-19.3c0-6.4-1.7-11.9-5-16c-4.2-5.1-10.8-7.9-19.6-8.1c-0.2,0-0.5,0-0.7,0c-12.7,0-22.2,8.4-23.8,21 c0,0.2-0.2,0.3-0.3,0.3l0,0c-1.8-0.5-3.6-0.7-5.4-0.7c-1.6,0-3.1,0.2-4.7,0.5c-9,2.1-15.8,9.9-16.4,19.1c-0.4,5.9,1.6,11.6,5.6,15.9 s9.6,6.7,15.5,6.7c0.4,0,0.8,0,1.2,0c10.2-0.6,18.8-8.7,19.8-18.8c0.5-4.3-0.4-8.6-2.5-12.4c-2.6-4.7-2.4-11,0.5-15.4 C62,36.9,67,34,72.2,34c0.2,0,0.5,0,0.8,0c7.1,0.4,12.6,6.4,12.6,13.6c0,4.5-1.7,7.8-7,14.1c-0.7,0.9-1.5,1.8-2.2,2.6 c-6.7,7.7-12.9,15.1-9.7,27.8c1.6,6.4,6.1,10.6,12.5,12c1.3,0.3,2.7,0.4,4.1,0.4c3.2,0,6.4-0.7,9.2-1.9c1.8-0.8,3-2.6,3.1-4.6 C95.6,96,94.5,94.1,92.6,93.1z M51.7,66.6c-0.6,4.7-4.5,8.6-9.2,9.2c-0.5,0.1-0.9,0.1-1.4,0.1c-3,0-6-1.3-8-3.6 c-2-2.3-3-5.3-2.6-8.4c0.6-4.7,4.5-8.6,9.2-9.2c0.5-0.1,0.9-0.1,1.4-0.1c3,0,6,1.3,8,3.6C51.2,60.5,52.1,63.5,51.7,66.6z" fill="#FAFAFA"/>
</svg>

<svg viewBox="0 0 128 128" xmlns="http://www.w3.org/2000/svg">
  <defs/>
  <path d="M124,64 A60 60 0 1 1 4,64 A60 60 0 1 1 124,64 Z" fill="#FBC02D"/>
  <path d="M116.2,63.1 A56.1 56.1 0 1 1 4,63.1 A56.1 56.1 0 1 1 116.2,63.1 Z" fill="#FCE438"/>
  <path d="M24,29.7 C28.5,22.6 38.1,16.7 48.1,14.9 C50.6,14.5 53.1,14.3 55.2,15.1 C56.8,15.7 58.1,17.2 57.2,18.9 C56.5,20.3 54.6,20.9 53.1,21.4 C43.8,24.4 35.2,27.8 30,35.7 C28,38.7 25.1,50.1 21.4,48 C17.5,45.7 18.3,38.5 24,29.7 Z" fill="#FFFFFF" opacity="0.6"/>
  <path d="M92.6,93.1 C91.9,92.8 91.2,92.6 90.4,92.6 C89.7,92.6 88.9,92.8 88.3,93 C87.6,93.3 85.7,94 83.4,94 C82.6,94 81.9,93.9 81.2,93.8 C78.8,93.3 77.4,92 76.8,89.5 C74.9,82.1 78.8,77.5 84.7,70.6 C85.3,69.9 85.9,69.1 86.6,68.4 C87,67.9 87.5,67.4 87.9,66.9 C93.3,60.5 96.1,57.2 96.1,47.6 C96.1,41.2 94.4,35.7 91.1,31.6 C86.9,26.5 80.3,23.7 71.5,23.5 C71.3,23.5 71,23.5 70.8,23.5 C58.1,23.5 48.6,31.9 47,44.5 C47,44.7 46.8,44.8 46.7,44.8 L46.7,44.8 C44.9,44.3 43.1,44.1 41.3,44.1 C39.7,44.1 38.2,44.3 36.6,44.6 C27.6,46.7 20.8,54.5 20.2,63.7 C19.8,69.6 21.8,75.3 25.8,79.6 C29.8,83.9 35.4,86.3 41.3,86.3 C41.7,86.3 42.1,86.3 42.5,86.3 C52.7,85.7 61.3,77.6 62.3,67.5 C62.8,63.2 61.9,58.9 59.8,55.1 C57.2,50.4 57.4,44.1 60.3,39.7 C62,36.9 67,34 72.2,34 C72.4,34 72.7,34 73,34 C80.1,34.4 85.6,40.4 85.6,47.6 C85.6,52.1 83.9,55.4 78.6,61.7 C77.9,62.6 77.1,63.5 76.4,64.3 C69.7,72 63.5,79.4 66.7,92.1 C68.3,98.5 72.8,102.7 79.2,104.1 C80.5,104.4 81.9,104.5 83.3,104.5 C86.5,104.5 89.7,103.8 92.5,102.6 C94.3,101.8 95.5,100 95.6,98 C95.6,96 94.5,94.1 92.6,93.1 Z M51.7,66.6 C51.1,71.3 47.2,75.2 42.5,75.8 C42,75.9 41.6,75.9 41.1,75.9 C38.1,75.9 35.1,74.6 33.1,72.3 C31.1,70 30.1,67 30.5,63.9 C31.1,59.2 35,55.3 39.7,54.7 C40.2,54.6 40.6,54.6 41.1,54.6 C44.1,54.6 47.1,55.9 49.1,58.2 C51.2,60.5 52.1,63.5 51.7,66.6 Z" fill="#FAFAFA"/>
</svg>
